X:2669
T:How It Is Applied
O:england
M:2/2
L:1/8
Q:200
C:Words and music by Catherine Faber, (c) 1990
S:From "A Breeze Through the CONduit"
B:A Breeze Through the CONduit, (c) 1992 by Julia West
N:Inspired by Lois McMaster Bujold's "The Borders of Infinity"
D:on the tape, "A Breeze Through the CONduit"
W:In Ryoval's darkened basement Naismith paced and laid his plans.
W:Survive, escape, do damage; great with what, our empty hands
W:But when I voiced the doubts I had, the Admiral he cried,
W:"It isn't how much force you use, it's how it is applied"
K:G
z2 G2 B2 B2|B2 c2 B2 A2|G2 G2 A2 A2|G2 F2 G4| z2 B2 c3 c|c2 d2 e d3|
c3 c B2 z A| G2 B2 d4|z2 B2 c2 c2|c2 d2 e2 d2|c2 c2 B2 A G-|G2 B2 A4|
z2 D2 G2 D2|B,2 D2 G2 B2|d2 c2 B2 B2|A2 A2 G4||
